Yaru++/apps/scalable/podcasts-app.svg

<svg height="256" width="256" xmlns="http://www.w3.org/2000/svg" xmlns:xlink="http://www.w3.org/1999/xlink"><clipPath id="a"><path d="m188.96875 43.999998c72.64865 0 83.03125 10.356615 83.03125 82.937502v58.125c0 72.58059-10.3826 82.9375-83.03125 82.9375h-73.9375c-72.64865 0-83.03125-10.35691-83.03125-82.9375v-58.125c0-72.580887 10.3826-82.937502 83.03125-82.937502z"/></clipPath><filter id="b" color-interpolation-filters="sRGB" height="1.015" width="1.056" x="-.03" y="-.01"><feGaussianBlur stdDeviation=".411"/></filter><clipPath id="c"><path d="m188.96875 44c72.64865 0 83.03125 10.356615 83.03125 82.9375v58.125c0 72.58059-10.3826 82.9375-83.03125 82.9375h-73.9375c-72.64865 0-83.03125-10.35691-83.03125-82.9375v-58.125c0-72.580885 10.3826-82.9375 83.03125-82.9375z"/></clipPath><filter id="d" color-interpolation-filters="sRGB" height="1.122" width="1.451" x="-.23" y="-.06"><feGaussianBlur stdDeviation="3.288"/></filter><linearGradient id="e" gradientUnits="userSpaceOnUse" x1="80.751999" x2="176.751999" y1="11.248002" y2="235.248002"><stop offset="0" stop-color="#7839b7"/><stop offset="1" stop-color="#8c59d9"/></linearGradient><filter id="f" color-interpolation-filters="sRGB" height="1.024" width="1.024" x="-.01" y="-.01"><feGaussianBlur stdDeviation="1.12"/></filter><filter id="g" color-interpolation-filters="sRGB" height="1.096" width="1.096" x="-.05" y="-.05"><feGaussianBlur stdDeviation="4.48"/></filter><circle cx="128.752" cy="127.248" filter="url(#g)" opacity=".1" r="112"/><circle cx="128.752" cy="125.248" filter="url(#f)" opacity=".1" r="112"/><circle cx="128.752" cy="123.248" opacity=".1" r="114"/><circle cx="128.752" cy="123.248" fill="url(#e)" r="112"/><g fill="#fff"><path d="m16.751999 132.94391a112.5345 112.53445 0 0 0 111.977531 102.30409 112.5345 112.53445 0 0 0 112.02247-102.30409z" opacity=".1"/><circle cx="128.826" cy="123.174" opacity=".2" r="87.79"/><ellipse cx="128.826" cy="123.174" opacity=".2" rx="52.471" ry="52.471"/></g><path clip-path="url(#c)" d="m151.98953 138.57854c-9.65989 0-17.49136 7.83112-17.49136 17.49136.0105 7.40304 4.68069 13.99752 11.66091 16.4652v95.46492h11.66091v-95.46492c6.98021-2.46768 11.65041-9.06216 11.6609-16.4652 0-9.66024-7.83146-17.49136-17.49136-17.49136z" filter="url(#d)" opacity=".2" transform="translate(-23.248351 -32.752008)"/><path clip-path="url(#a)" d="m151.98953 138.57854c-9.6599 0-17.49136 7.83112-17.49136 17.49136.0105 7.40305 4.68069 13.99752 11.66091 16.4652v95.46492h11.6609v-95.46492c6.98022-2.46768 11.65041-9.06215 11.66091-16.4652 0-9.66024-7.83147-17.49136-17.49136-17.49136z" filter="url(#b)" opacity=".1" transform="translate(-23.248351 -32.752008)"/><path d="m128.74028 105.82613c-9.65989 0-17.49023 7.83194-17.49023 17.49219.0105 7.40304 4.67993 13.99717 11.66015 16.46485v95.23046a112.5345 112.53445 0 0 0 5.81836.23438 112.5345 112.53445 0 0 0 5.84375-.29492v-95.16992c6.98022-2.46768 11.64966-9.06181 11.66016-16.46485 0-9.66025-7.83229-17.49219-17.49219-17.49219z" fill="#fff"/><path d="m128.752 11.248006a112 112 0 0 0 -112.000001 111.999994 112 112 0 0 0 .04102 1.16992 112 112 0 0 1 111.958981-111.169914 112 112 0 0 1 111.95898 110.830074 112 112 0 0 0 .041-.83008 112 112 0 0 0 -112-111.999994z" fill="#fff" opacity=".3"/><path d="m128.752 235.248a112 112 0 0 1 -112.000001-112 112 112 0 0 1 .04102-1.16992 112 112 0 0 0 111.958981 111.16992 112 112 0 0 0 111.95898-110.83008 112 112 0 0 1 .041.83008 112 112 0 0 1 -112 112z" opacity=".2"/></svg>

<svg xmlns="http://www.w3.org/2000/svg" xmlns:osb="http://www.openswatchbook.org/uri/2009/osb" xmlns:xlink="http://www.w3.org/1999/xlink" width="256" height="256" version="1.1">
 <defs>
  <linearGradient id="linearGradient5606" osb:paint="solid">
   <stop id="stop5608" offset="0" style="stop-color:#000000"/>
  </linearGradient>
  <linearGradient id="linearGradient4526" osb:paint="solid">
   <stop id="stop4528" offset="0" style="stop-color:#ffffff"/>
  </linearGradient>
  <linearGradient id="linearGradient3600-4" osb:paint="gradient">
   <stop id="stop3602-7" offset="0" style="stop-color:#f4f4f4"/>
   <stop id="stop3604-6" offset="1" style="stop-color:#dbdbdb"/>
  </linearGradient>
  <clipPath id="clipPath1094" clipPathUnits="userSpaceOnUse">
   <path style="fill:url(#linearGradient1098)" d="M 188.96875,43.999998 C 261.6174,43.999998 272,54.356613 272,126.9375 v 58.125 C 272,257.64309 261.6174,268 188.96875,268 h -73.9375 C 42.3826,268 32,257.64309 32,185.0625 v -58.125 C 32,54.356613 42.3826,43.999998 115.03125,43.999998 Z"/>
  </clipPath>
  <filter style="color-interpolation-filters:sRGB" id="filter965" width="1.056" height="1.015" x="-.03" y="-.01">
   <feGaussianBlur id="feGaussianBlur967" stdDeviation=".411"/>
  </filter>
  <clipPath id="clipPath1100" clipPathUnits="userSpaceOnUse">
   <path style="fill:url(#linearGradient1104)" d="M 188.96875,44 C 261.6174,44 272,54.356615 272,126.9375 v 58.125 C 272,257.64309 261.6174,268 188.96875,268 h -73.9375 C 42.3826,268 32,257.64309 32,185.0625 v -58.125 C 32,54.356615 42.3826,44 115.03125,44 Z"/>
  </clipPath>
  <filter style="color-interpolation-filters:sRGB" id="filter984" width="1.451" height="1.122" x="-.23" y="-.06">
   <feGaussianBlur id="feGaussianBlur986" stdDeviation="3.288"/>
  </filter>
  <linearGradient id="linearGradient11065" x1="104" x2="200" y1="44" y2="268" gradientTransform="translate(-23.248001,-32.751998)" gradientUnits="userSpaceOnUse" xlink:href="#linearGradient905"/>
  <linearGradient id="linearGradient905">
   <stop id="stop903" offset="0" style="stop-color:#7839b7"/>
   <stop id="stop901" offset="1" style="stop-color:#8c59d9"/>
  </linearGradient>
  <filter style="color-interpolation-filters:sRGB" id="filter11191" width="1.024" height="1.024" x="-.01" y="-.01">
   <feGaussianBlur id="feGaussianBlur11193" stdDeviation="1.12"/>
  </filter>
  <filter style="color-interpolation-filters:sRGB" id="filter11210" width="1.096" height="1.096" x="-.05" y="-.05">
   <feGaussianBlur id="feGaussianBlur11212" stdDeviation="4.48"/>
  </filter>
 </defs>
 <circle style="opacity:0.1;filter:url(#filter11210)" cx="128.752" cy="127.248" r="112"/>
 <circle style="opacity:0.1;filter:url(#filter11191)" cx="128.752" cy="125.248" r="112"/>
 <circle style="opacity:0.1" cx="128.752" cy="123.248" r="114"/>
 <circle style="fill:url(#linearGradient11065)" cx="128.752" cy="123.248" r="112"/>
 <path style="opacity:0.1;fill:#ffffff" d="M 16.751999,132.94391 A 112.5345,112.53445 0 0 0 128.72953,235.248 112.5345,112.53445 0 0 0 240.752,132.94391 Z"/>
 <circle style="opacity:0.2;fill:#ffffff" cx="128.826" cy="123.174" r="87.79"/>
 <ellipse style="opacity:0.2;fill:#ffffff" cx="128.826" cy="123.174" rx="52.471" ry="52.471"/>
 <path d="m 151.98953,138.57854 c -9.65989,0 -17.49136,7.83112 -17.49136,17.49136 0.0105,7.40304 4.68069,13.99752 11.66091,16.4652 v 95.46492 h 11.66091 V 172.5351 c 6.98021,-2.46768 11.65041,-9.06216 11.6609,-16.4652 0,-9.66024 -7.83146,-17.49136 -17.49136,-17.49136 z" clip-path="url(#clipPath1100)" transform="translate(-23.248351,-32.752008)" style="opacity:0.2;filter:url(#filter984)"/>
 <path d="m 151.98953,138.57854 c -9.6599,0 -17.49136,7.83112 -17.49136,17.49136 0.0105,7.40305 4.68069,13.99752 11.66091,16.4652 v 95.46492 h 11.6609 V 172.5351 c 6.98022,-2.46768 11.65041,-9.06215 11.66091,-16.4652 0,-9.66024 -7.83147,-17.49136 -17.49136,-17.49136 z" clip-path="url(#clipPath1094)" transform="translate(-23.248351,-32.752008)" style="opacity:0.1;filter:url(#filter965)"/>
 <path style="fill:#ffffff" d="m 128.74028,105.82613 c -9.65989,0 -17.49023,7.83194 -17.49023,17.49219 0.0105,7.40304 4.67993,13.99717 11.66015,16.46485 v 95.23046 a 112.5345,112.53445 0 0 0 5.81836,0.23438 112.5345,112.53445 0 0 0 5.84375,-0.29492 v -95.16992 c 6.98022,-2.46768 11.64966,-9.06181 11.66016,-16.46485 0,-9.66025 -7.83229,-17.49219 -17.49219,-17.49219 z"/>
 <path style="opacity:0.3;fill:#ffffff" d="M 128.752,11.248006 A 112,112 0 0 0 16.751999,123.248 112,112 0 0 0 16.793019,124.41792 112,112 0 0 1 128.752,13.248006 112,112 0 0 1 240.71098,124.07808 a 112,112 0 0 0 0.041,-0.83008 112,112 0 0 0 -112,-111.999994 z"/>
 <path style="opacity:0.2" d="m 128.752,235.248 a 112,112 0 0 1 -112.000001,-112 112,112 0 0 1 0.04102,-1.16992 A 112,112 0 0 0 128.752,233.248 112,112 0 0 0 240.71098,122.41792 a 112,112 0 0 1 0.041,0.83008 112,112 0 0 1 -112,112 z"/>
</svg>
